src/dsmComponents/Icons/device-mobile-24px.svg

<?xml version="1.0" encoding="UTF-8"?>
<svg width="15px" height="24px" viewBox="0 0 15 24" version="1.1" xmlns="http://www.w3.org/2000/svg" xmlns:xlink="http://www.w3.org/1999/xlink">
    <!-- Generator: Sketch 59.1 (86144) - https://sketch.com -->
    <title>device-mobile-24px</title>
    <desc>Created with Sketch.</desc>
    <defs>
        <path d="M13,0 C14.1045695,-2.02906125e-16 15,0.8954305 15,2 L15,22 C15,23.1045695 14.1045695,24 13,24 L2,24 C0.8954305,24 1.3527075e-16,23.1045695 0,22 L0,2 C-1.3527075e-16,0.8954305 0.8954305,2.02906125e-16 2,0 L13,0 Z M11.784073,2.31744043 L3.27607053,2.31744043 C2.72378578,2.31744043 2.27607053,2.76515568 2.27607053,3.31744043 L2.27607053,3.31744043 L2.27607053,20.75 C2.27607053,21.3022847 2.72378578,21.75 3.27607053,21.75 L3.27607053,21.75 L11.784073,21.75 C12.3363577,21.75 12.784073,21.3022847 12.784073,20.75 L12.784073,20.75 L12.784073,3.31744043 C12.784073,2.76515568 12.3363577,2.31744043 11.784073,2.31744043 L11.784073,2.31744043 Z M5.25,18.75 L9.75,18.75 C10.1642136,18.75 10.5,19.0857864 10.5,19.5 C10.5,19.9142136 10.1642136,20.25 9.75,20.25 L5.25,20.25 C4.83578644,20.25 4.5,19.9142136 4.5,19.5 C4.5,19.0857864 4.83578644,18.75 5.25,18.75 Z" id="path-1"></path>
    </defs>
    <g id="Final" stroke="none" stroke-width="1" fill="none" fill-rule="evenodd">
        <g id="All-Nucleo-Icons" transform="translate(-613.000000, -2076.000000)">
            <g id="Solo/Nucleo/24px/device-mobile" transform="translate(608.000000, 2076.000000)">
                <g id="phone-button" transform="translate(5.000000, 0.000000)">
                    <g id="Colour/Default-Colour">
                        <mask id="mask-2" fill="white">
                            <use xlink:href="#path-1"></use>
                        </mask>
                        <g id="Mask" fill-rule="nonzero"></g>
                        <g id="colour/neutral/chia" mask="url(#mask-2)" fill="#737373">
                            <g transform="translate(-25.000000, -20.000000)" id="Colour">
                                <rect x="0" y="0" width="64" height="64"></rect>
                            </g>
                        </g>
                    </g>
                </g>
            </g>
        </g>
    </g>
</svg>

<svg width="15" height="24" xmlns="http://www.w3.org/2000/svg" xmlns:xlink="http://www.w3.org/1999/xlink"><defs><path d="M13 0a2 2 0 012 2v20a2 2 0 01-2 2H2a2 2 0 01-2-2V2a2 2 0 012-2h11zm-1.216 2.317H3.276a1 1 0 00-1 1V20.75a1 1 0 001 1h8.508a1 1 0 001-1V3.317a1 1 0 00-1-1zM5.25 18.75h4.5a.75.75 0 110 1.5h-4.5a.75.75 0 110-1.5z" id="device-mobile-24px_svg__a"/></defs><use fill="#737373" xlink:href="#device-mobile-24px_svg__a" fill-rule="evenodd"/></svg>
